X:247
T:Humours of Trim, The
T:Rolling Wave, The
R:jig
H:Last part with variations
Z:id:hn-jig-247
M:6/8
K:D
FEF DED|D2d cAG|~F3 DED|A2F GFE|
~F3 DED|D2d cAG|FAF GBG|AFA GFE:|
D2d cAd|cAd cAG|F2d cAG|FAF GFE|
D2d cAd|fed cAG|FAF GBG|AFA GFE|
D2d cAd|cAG EFG|F2d cAG|AFA BGE|
D2d cAd|fed cAG|FAF GBG|AFA GFE||

